tools/download-figma-icons/icons/outlined-medium/lightning.svg

<svg width="24" height="24" viewBox="0 0 24 24" fill="none" xmlns="http://www.w3.org/2000/svg">
<path fill-rule="evenodd" clip-rule="evenodd" d="M3.8053 13.4958C3.8233 13.498 3.84355 13.4995 3.8668 13.4995H10.4997C10.9144 13.4995 11.2497 13.8355 11.2497 14.2495V22.4116C11.2497 22.4693 11.2669 22.4858 11.2954 22.4948C11.3179 22.5023 11.3449 22.5038 11.3839 22.4483L20.194 10.5041C20.176 10.5018 20.1557 10.5003 20.1325 10.5003H13.4996C13.0849 10.5003 12.7496 10.1643 12.7496 9.75033V1.58825C12.7496 1.5305 12.7331 1.514 12.7046 1.505C12.6814 1.4975 12.6544 1.49525 12.6154 1.5515L3.8053 13.4958ZM11.3246 24C11.1664 24 11.0059 23.9753 10.8469 23.9258C10.1802 23.7173 9.74967 23.1226 9.74967 22.4116V14.9995H3.86679C3.22781 14.9995 2.66757 14.6875 2.40432 14.185C2.16058 13.7192 2.20783 13.1628 2.53107 12.6978L11.3959 0.679264C11.7919 0.109275 12.4871 -0.13522 13.1524 0.0740258C13.8191 0.283272 14.2496 0.87726 14.2496 1.58825V9.00109H20.1325C20.7714 9.00109 21.3317 9.31309 21.5949 9.81483C21.8387 10.2813 21.7914 10.8371 21.4682 11.302L12.6034 23.3206C12.3019 23.754 11.8286 24 11.3246 24Z" fill="black"/>
</svg>

<svg xmlns="http://www.w3.org/2000/svg" width="24" height="24" fill="none" viewBox="0 0 24 24"><path fill="currentColor" fill-rule="evenodd" d="m3.805 13.496.062.003H10.5a.75.75 0 0 1 .75.75v8.163c0 .057.017.074.045.083.023.007.05.009.089-.047l8.81-11.944-.061-.004H13.5a.75.75 0 0 1-.75-.75V1.588c0-.058-.017-.074-.045-.083-.024-.007-.05-.01-.09.047zM11.325 24q-.24 0-.478-.074c-.667-.209-1.097-.803-1.097-1.514V15H3.867c-.64 0-1.2-.312-1.463-.815-.243-.466-.196-1.022.127-1.487L11.396.679a1.55 1.55 0 0 1 1.756-.605c.667.21 1.098.803 1.098 1.514v7.413h5.883c.638 0 1.199.312 1.462.814.244.466.196 1.022-.127 1.487l-8.865 12.019a1.55 1.55 0 0 1-1.278.679" clip-rule="evenodd"/></svg>
